X:23
T:Quinlin's Return to Castle Shannon
R:reel
C: 1977, 2010 L.E. McCullough  
M:4/4
L:1/8
K:G
|:DEGA ~B3d|e~B3 g~B3|DEGA ~B2 dB|BAAG AGEG|
DEGA ~B3d|e~B3 ~g3d|~e3g edBA|1 AGEF ~G3E:|2 AGEF ~G3f|]
|:~g3e dGBd|e~g3 edBA|~g3e dBGB|dBAG ~A3f|
~g3e d~B3|D~G3 ~B3d|~e3g edBA|1 AGEF ~G3f:|2 AGEF ~G3E|]
<end>
<start>
